docs/img/bigBgProblems.svg

<svg width="1312" height="533" fill="none" xmlns="http://www.w3.org/2000/svg"><path d="M152 52.75L247 0l95 52.75v105.078L247 211l-95-53.172V52.75zm-194 0L53 0l95 52.75v105.078L53 211l-95-53.172V52.75zm97 161L150 161l95 52.75v105.078L150 372l-95-53.172V213.75zm1067-161L1217 0l95 52.75v105.078L1217 211l-95-53.172V52.75z" fill="#F9F9F9"/></svg>

<svg width="1312" height="533" viewBox="0 0 1312 533" fill="none" xmlns="http://www.w3.org/2000/svg">
<path d="M152 52.75L247 0L342 52.75V157.828L247 211L152 157.828V52.75Z" fill="#F9F9F9"/>
<path d="M-42 52.75L53 0L148 52.75V157.828L53 211L-42 157.828V52.75Z" fill="#F9F9F9"/>
<path d="M55 213.75L150 161L245 213.75V318.828L150 372L55 318.828V213.75Z" fill="#F9F9F9"/>
<path d="M1122 52.75L1217 0L1312 52.75V157.828L1217 211L1122 157.828V52.75Z" fill="#F9F9F9"/>
</svg>
